X: 31528
T: Paddy's Rambles Through The Park
R: waltz
M: 3/4
K: Amixolydian
cd|e2 ed c<e|d2 dc Bd|c2 cB Ac|
B4 EF|G2 B2 ec|d2>e2 fd|e2 E2 ^G2|A4:|
A/G/F/G/|E2 A2 A2|G2 B2 BA|B2<G2 G2|
G4 AG|E2 A2 AB|=c4 BA|^G2<E2E2|E4 cd|
e2 ed c<e|d2 dc Bd|c2 cB Ac|
B4 EF|G2 B2 ec|d2>e2 fd|e2 E2 ^G2|A4||

